resources/SLDS/icons/standard/procedure.svg

<svg xmlns="http://www.w3.org/2000/svg" width="100" height="100" viewBox="0 0 100 100"><g><path d="M72,25H70a.94.94,0,0,0-1,1v4a8,8,0,0,1-8,8H39a8,8,0,0,1-8-8V26a.94.94,0,0,0-1-1H28a6,6,0,0,0-6,6V74a6,6,0,0,0,6,6H72a6,6,0,0,0,6-6V31A6,6,0,0,0,72,25ZM28,53.86V51.79a2.08,2.08,0,0,1,2.08-2.08h3.11V46.6a2.08,2.08,0,0,1,2.07-2.08h2.08a2.08,2.08,0,0,1,2.07,2.08v3.11H42.5a2.08,2.08,0,0,1,2.08,2.08v2.07a2.08,2.08,0,0,1-2.08,2.08H39.39v3.11a2.07,2.07,0,0,1-2.07,2.07H35.24a2.07,2.07,0,0,1-2.07-2.07V55.94H30.06A2.08,2.08,0,0,1,28,53.86ZM71.66,71.65A1.32,1.32,0,0,1,70.33,73H29.41a1.33,1.33,0,0,1-1.33-1.33V69a1.34,1.34,0,0,1,1.33-1.33H70.33A1.33,1.33,0,0,1,71.66,69Zm0-11.62a1.33,1.33,0,0,1-1.33,1.33H50.22A1.34,1.34,0,0,1,48.89,60V57.37A1.34,1.34,0,0,1,50.22,56H70.33a1.33,1.33,0,0,1,1.33,1.33Zm0-11.63a1.33,1.33,0,0,1-1.33,1.33H50.41a1.34,1.34,0,0,1-1.33-1.33V45.74a1.34,1.34,0,0,1,1.33-1.33H70.33a1.33,1.33,0,0,1,1.33,1.33Z" fill="#fff"/><path d="M39,32H61a2,2,0,0,0,2-2V26a6,6,0,0,0-6-6H43a6,6,0,0,0-6,6v4A2,2,0,0,0,39,32Z" fill="#fff"/></g></svg>

<svg xmlns="http://www.w3.org/2000/svg" height="100" width="100" viewBox="0 0 100 100" fill="#fff"><path d="M72 25h-2a1 1 0 0 0-1 1v4a8 8 0 0 1-8 8H39a8 8 0 0 1-8-8v-4a1 1 0 0 0-1-1h-2a6 6 0 0 0-6 6v43a6 6 0 0 0 6 6h44a6 6 0 0 0 6-6V31a6 6 0 0 0-6-6zM28 53.9v-2.1a2 2 0 0 1 2-2h3.2v-3.2a2 2 0 0 1 2-2h2.1a2 2 0 0 1 2.1 2v3.1h3.1a2 2 0 0 1 2 2V54a2 2 0 0 1-2 2h-3.1v3a2 2 0 0 1-2 2.1h-2.2a2 2 0 0 1-2-2v-3.2H30a2 2 0 0 1-2.1-2zm43.7 17.8a1.3 1.3 0 0 1-1.4 1.3H29.4a1.3 1.3 0 0 1-1.3-1.3V69a1.3 1.3 0 0 1 1.3-1.3h41a1.3 1.3 0 0 1 1.3 1.3zm0-11.7a1.3 1.3 0 0 1-1.4 1.4h-20a1.3 1.3 0 0 1-1.4-1.4v-2.6a1.3 1.3 0 0 1 1.3-1.4h20.1a1.3 1.3 0 0 1 1.4 1.3zm0-11.6a1.3 1.3 0 0 1-1.4 1.3H50.4a1.3 1.3 0 0 1-1.3-1.3v-2.7a1.3 1.3 0 0 1 1.3-1.3h20a1.3 1.3 0 0 1 1.3 1.3zM39 32h22a2 2 0 0 0 2-2v-4a6 6 0 0 0-6-6H43a6 6 0 0 0-6 6v4a2 2 0 0 0 2 2z"/></svg>
